svg/bus_wrench.svg

<svg xmlns="http://www.w3.org/2000/svg" viewBox="0 0 24 24"><path d="M20 13V6c0-3.5-3.58-4-8-4s-8 .5-8 4v10c0 .88.39 1.67 1 2.22V20c0 .27.11.5.29.71.21.19.45.29.71.29h1c.27 0 .5-.1.71-.29.19-.21.29-.44.29-.71v-1h4a5.002 5.002 0 0 1 8-6m-4-2H6V6h12v5zm-9.56 5.56a1.499 1.499 0 1 1 2.12-2.12 1.499 1.499 0 1 1-2.12 2.12m9.06.36-2.21-2.21c-.18.39-.29.83-.29 1.29 0 1.66 1.34 3 3 3 .46 0 .9-.1 1.29-.29l4 4 1.42-1.42-4-4c.19-.39.29-.83.29-1.29 0-1.66-1.34-3-3-3-.46 0-.9.11-1.29.29l2.2 2.21-1.41 1.41Z"/></svg>

<svg xmlns="http://www.w3.org/2000/svg" id="mdi-bus-wrench" viewBox="0 0 24 24"><path d="M20 13V6C20 2.5 16.42 2 12 2C7.58 2 4 2.5 4 6V16C4 16.88 4.39 17.67 5 18.22V20C5 20.27 5.11 20.5 5.29 20.71C5.5 20.9 5.74 21 6 21H7C7.27 21 7.5 20.9 7.71 20.71C7.9 20.5 8 20.27 8 20V19H12C11.37 18.16 11 17.13 11 16C11 13.24 13.24 11 16 11C17.64 11 19.09 11.79 20 13M16 11H6V6H18V11H16M6.44 16.56C6.16 16.28 6 15.9 6 15.5C6 15.1 6.16 14.72 6.44 14.44C6.72 14.16 7.1 14 7.5 14C7.9 14 8.28 14.16 8.56 14.44C8.84 14.72 9 15.1 9 15.5C9 15.9 8.84 16.28 8.56 16.56C8.28 16.84 7.9 17 7.5 17C7.1 17 6.72 16.84 6.44 16.56M15.5 16.92L13.29 14.71C13.11 15.1 13 15.54 13 16C13 17.66 14.34 19 16 19C16.46 19 16.9 18.9 17.29 18.71L21.29 22.71L22.71 21.29L18.71 17.29C18.9 16.9 19 16.46 19 16C19 14.34 17.66 13 16 13C15.54 13 15.1 13.11 14.71 13.29L16.91 15.5L15.5 16.91Z" /></svg>
